X: 305775
M: 2/4
L: 1/16
K: D
(3(ABc) |\
d2dd d2cB | ABGA F2A2 | E2A2 D2A2 | Bcde dcBA |\
d2a2 fgaf | efgf fgaf | gabg fdfa | gfed dcBA |
d2b2 agfe | d2a2 c2a2 | B2gB ABcd | edBA (d2df) |\
edcB caaa | Bggg Afff | edcB caaa | bgbg afaf |
edcB cABG | AFGE DAFA | DAFA GEBE | GEBE FAdc |\


